X:1
T:Bobby Casey's
R:hornpipe
M:C|
K:Ador
ed|cAAB ~c3d|eaag (3efe dB|cAAc BAGA|Bdde dBAG|
AGAB c3d|eaag (3efe dB|cAAc dBGB|A2AG A2:|
(3Bcd|ea~a2 aged|ea~a2 aged|eg~g2 gedg|eg~g2 gedB|
AGAB c3d|eaag (3efe dB|cAAc dBGB|A2AG A2(3Bcd|
eaag aged|eaag aged|eggf ged2|(3efg fa gedB|
AGAB cBcd|eaag (3efe dB|cAAc dBGB|A2AG A2|]
</abc>
